X:1
T:# / 2 landini: questa fanciull' amor
%%score [ 1 2 ] 3
L:1/8
Q:1/4=90
M:6/8
K:C
V:1 treble nm="Sup."
V:2 bass nm="T"
V:3 bass nm="Co"
V:1
"^A" D3"^Questa fanciull' amor""^(Ballata)" C3 | D3 E3 | FED C2 D | E2 C C2 B, | %4
w: Que- *||sta * * fan- *|ciul- * l'a- *|
 D3 z"^Francesco Landini""^(1325-1397)" z A | A3 B3 | A2 G G2 F | A3 z z F | G2 E E2 D | %9
w: mor fal-|la- mi|pi- * * *|||
 DCB, C2 D | E3 z z D | D2 C C2 B, | A,3 B,3 | A,3 z z A, | A,2 B, C2 B, | D3 z z D | E2 F G3 | %17
w: |a, Che|m'a * fe- *|ri- to'l|cor nel\-~|la * tua *|vi- *||
 A3 z z G | F2 E E2 D | D2 C C2 B, | D6- | D6"^B" |: E3- E2 F | G3 A3 | B3 z z A | A2 G G2 F | %26
w: |||\-a.||Tu * *|m'ha, fan-|ciul- la,|si d'a- mor per|
 E3 G3 | F2 E E2 D | FED C2 D | E6 | z6 | E2 D D2 C | B,2 C D3 | C2 A, B,2 G, | A,2 A, B,2 C | %35
w: cos *|||so||Che * * *|so- * lo~in|te * pen- *|san- do tro- vo|
 D3 z z D | E2 F G3 | A3 z z G | F2 E E2 D | D2 C C2 B, | D6- | D6 :| %42
w: po- *|||||sa.||
V:2
 D,3 E,3 | G,2 F, E,3 | F,3 F,3 | A,3 E,3 | D,3 z z D | D3 D3 | C3 B,3 | A,6 | G,3 A,3 | G,3 F,3 | %10
w: Que *||sta fan-|ciul- l'a-|\-mor fal-|la- mi|pi- *||||
 E,3- E,2 E, | F,3 G,3 | A,3 G,3 | z z A, A,2 A, | D,3 E,3 | z z D, G,3 | A,3 G,3 | D,6 | %18
w: a, * Che|m'a fe-|ri- to|il cor nel-|la tua|vi *|||
 F,3 A,2 G, | F,3 E,3 | D,6- | D,6 |: A,6 | G,3 D2 C | B,3 B,3 | C2 C D2 D | A,3 G,3 | A,3 G,3 | %28
w: ||\-a.||Tu|m'ha, fan- *|ciul- la,|si d'a- mor per-|cos- *||
 F,6 | E,6 | z6 | A,3 G,2 A, | B,3 B,3 | C3 B,3 | A,2 A, E,2 E, | z z D, G,3 | A,3 G,3 | D,6 | %38
w: |so,||Che * *|so- lo~in|te pen-|san- do tro- vo|po *|||
 F,3 A,2 G, | F,3 E,3 | D,6- | D,6 :| %42
w: ||sa.||
V:3
 A,3 z3 | G,6 | C2 B, C2 B, | A,3 G,3 | A,3 F,2 E, | D,6 | F,3 G,3 | z z A, B,2 C | D3 C3 | %9
 B,3 A,3 | B,6 | A,3 B,3 | C2 E E2 D | E3 A,3 | z3 G,3 | B,2 A, B,3 | C3 D2 E | D2 A, A,2 B, | %18
 C2 B, A,2 B, | A,3 G,3 | A,6- | A,6 |: A,2 B, C3 | D3 z z E | D3 B,3 | A,3 G,3 | A,3 B,3 | %27
 C3 B,3 | C2 B, C2 A, | B,6 | z6 | C3 B,2 A, | G,3 z z D, | F,3 G,3 | A,3 G,3 | B,2 A, B,3 | %36
 C3 D2 E | D2 A, A,2 B, | %38
 C2 B, A,2"^1(A) Questa fanciulla'amor fallami pia\nche mi ha ferito il cor nella tua via.  \n\n2(B) Tu m'ha fanciulla si' d'amor percosso\nche solo in te pensando trovo posa\n\n3(B) El cor di me da me tu m'ha rimosso\ncogli occhi belli e la faccia gioiosa\n\n4(A) Pero ch'al servo tuo deh sie piatosa\nmerce ti chiegho alla gran pena mia. \n" B, | %39
 A,3"^5(A) Questa fanciull'amor...  \n\n6(B) Se non soccorri alle dogliose pene\nil cor mi verra' meno che tu m'a tolto,\n\n7(B) Che la mia vita non sente ma' bene\nse non mirando 'l tuo vezzoso volto.\n\n8(A) Da poi fanciulla che d'amor m'a involto\npriego ch'alquanto a me beningnia sia.\n\n9(A) Questa fanciull'amor...." G,3 | %40
 A,6- | A,6 :| %42

